F[BALLADE
CUT[Die verkaufte Muellerin
    Es wollt ein Mueller spazierengehn,]
CNR[wohl in dem Wald ins Gruene gehn,]
REG[Osteuropa, UdSSR, Russland, Wolgakolonie]
SRC[4, S. 338
    ????]
KEY[Q0086K 16  G 3/4]
MEL[-5_  -5-6-7_1__3_3_  432_1__.
    3_  2_1_-6_1_2_1_  -7_-6_-5__.
    -5_  -6_-5_1_2_3_3_  432_1__. //] >>
FCT[Ballade, Menschenhandel, Rettung, Hinrichtung]
